assets/svg/visa.svg

<?xml version="1.0" encoding="utf-8"?><!-- Uploaded to: SVG Repo, www.svgrepo.com, Generator: SVG Repo Mixer Tools -->
<svg width="800px" height="800px" viewBox="0 -9 58 58" fill="none" xmlns="http://www.w3.org/2000/svg">
<rect x="0.5" y="0.5" width="57" height="39" rx="3.5" fill="white" stroke="#F3F3F3"/>
<path d="M25.7516 27.4332H21.8901L24.3054 13.4325H28.1667L25.7516 27.4332Z" fill="#15195A"/>
<path d="M39.7499 13.7748C38.9882 13.4915 37.7802 13.1787 36.2865 13.1787C32.4731 13.1787 29.7878 15.0851 29.7713 17.8106C29.7396 19.8215 31.6939 20.9384 33.1556 21.6089C34.6495 22.2941 35.1574 22.7413 35.1574 23.352C35.1422 24.29 33.9502 24.7223 32.8384 24.7223C31.2967 24.7223 30.4707 24.4994 29.2153 23.9776L28.7069 23.7539L28.1665 26.8967C29.0722 27.2835 30.7408 27.6268 32.4731 27.6419C36.5249 27.6419 39.1627 25.765 39.1939 22.8605C39.2093 21.2667 38.1774 20.0454 35.9526 19.0475C34.602 18.4069 33.7749 17.9749 33.7749 17.3195C33.7908 16.7236 34.4745 16.1133 35.9991 16.1133C37.2544 16.0834 38.1768 16.3663 38.8755 16.6494L39.2247 16.7981L39.7499 13.7748V13.7748V13.7748Z" fill="#15195A"/>
<path fill-rule="evenodd" clip-rule="evenodd" d="M46.6618 13.4325H49.6486L52.7639 27.433H49.1885C49.1885 27.433 48.8386 25.8244 48.7278 25.3328H43.7699C43.6266 25.705 42.9595 27.433 42.9595 27.433H38.9078L44.6435 14.5941C45.0409 13.6855 45.7407 13.4325 46.6618 13.4325ZM46.4238 18.556C46.4238 18.556 45.2001 21.6689 44.8821 22.4732H48.0918C47.933 21.7733 47.2017 18.4219 47.2017 18.4219L46.9319 17.2156C46.8182 17.5262 46.6539 17.9533 46.543 18.2414C46.4679 18.4366 46.4173 18.568 46.4238 18.556Z" fill="#15195A"/>
<path fill-rule="evenodd" clip-rule="evenodd" d="M5.1589 13.4325H11.3716C12.2138 13.462 12.8971 13.7152 13.1194 14.6094L14.4696 21.0422C14.4697 21.0426 14.4699 21.043 14.47 21.0434L14.8832 22.9796L18.6649 13.4325H22.7481L16.6785 27.4184H12.5951L9.15337 15.253C7.96587 14.6021 6.6106 14.0786 5.09534 13.7154L5.1589 13.4325Z" fill="#15195A"/>
</svg>

<svg xmlns="http://www.w3.org/2000/svg" width="800" height="800" fill="none" viewBox="0 -9 58 58">
    <rect width="57" height="39" x=".5" y=".5" fill="#fff" stroke="#f3f3f3" rx="3.5" />
    <path fill="#15195a"
        d="M25.752 27.433H21.89l2.415-14h3.862zM39.75 13.775a10.1 10.1 0 0 0-3.464-.596c-3.813 0-6.498 1.906-6.515 4.632-.031 2.01 1.923 3.127 3.385 3.798 1.494.685 2.001 1.132 2.001 1.743-.015.938-1.207 1.37-2.319 1.37-1.541 0-2.367-.223-3.623-.744l-.508-.224-.54 3.143c.905.387 2.574.73 4.306.745 4.052 0 6.69-1.877 6.72-4.782.016-1.593-1.016-2.815-3.24-3.812-1.351-.641-2.178-1.073-2.178-1.728.016-.596.7-1.207 2.224-1.207a6.9 6.9 0 0 1 2.877.536l.349.15z" />
    <path fill="#15195a" fill-rule="evenodd"
        d="M46.662 13.433h2.987l3.115 14h-3.576s-.35-1.609-.46-2.1H43.77l-.81 2.1h-4.052l5.736-12.839c.397-.909 1.097-1.162 2.018-1.162m-.238 5.123s-1.224 3.113-1.542 3.917h3.21c-.159-.7-.89-4.051-.89-4.051l-.27-1.206c-.114.31-.278.737-.389 1.025-.075.196-.126.327-.12.315M5.159 13.433h6.213c.842.029 1.525.282 1.747 1.176l1.35 6.433.001.001.413 1.937 3.782-9.548h4.083l-6.07 13.986h-4.083L9.153 15.253c-1.187-.65-2.542-1.174-4.058-1.538z"
        clip-rule="evenodd" />
</svg>
